; generated by PrusaSlicer 2.2.0+linux-x64 on 2021-09-26 at 07:37:39 UTC

; 

; external perimeters extrusion width = 0.45mm
; perimeters extrusion width = 0.45mm
; infill extrusion width = 0.45mm
; solid infill extrusion width = 0.45mm
; top infill extrusion width = 0.40mm
; first layer extrusion width = 0.42mm

M73 P0 R67
M73 Q0 S70
M201 X1000 Y1000 Z200 E5000 ; sets maximum accelerations, mm/sec^2
M203 X200 Y200 Z12 E120 ; sets maximum feedrates, mm/sec
M204 P1250 R1250 T1250 ; sets acceleration (P, T) and retract acceleration (R), mm/sec^2
M205 X8.00 Y8.00 Z0.40 E4.50 ; sets the jerk limits, mm/sec
M205 S0 T0 ; sets the minimum extruding and travel feed rate, mm/sec
M107
M862.3 P "MK3" ; printer model check
M862.1 P0.4 ; nozzle diameter check
M115 U3.10.0 ; tell printer latest fw version
G90 ; use absolute coordinates
M83 ; extruder relative mode
M104 S215 ; set extruder temp
M140 S60 ; set bed temp
M190 S60 ; wait for bed temp
M109 S215 ; wait for extruder temp
G28 W ; home all without mesh bed level
G80 ; mesh bed leveling
G1 Y-3.0 F1000.0 ; go outside print area
G92 E0.0
G1 X60.0 E9.0 F1000.0 ; intro line
M73 Q0 S70
M73 P0 R67
G1 X100.0 E12.5 F1000.0 ; intro line
G92 E0.0
M221 S95

; Don't change E values below. Excessive value can damage the printer.

M907 E538 ; set extruder motor current
G21 ; set units to millimeters
G90 ; use absolute coordinates
M83 ; use relative distances for extrusion
M900 K0.05 ; Filament gcode LA 1.5
M900 K30 ; Filament gcode LA 1.0
;BEFORE_LAYER_CHANGE
G92 E0.0
;0.2


G1 E-0.80000 F2100.00000
G1 Z0.400 F10800.000
;AFTER_LAYER_CHANGE
;0.2
G1 X38.641 Y41.528
G1 Z0.200
G1 E0.80000 F2100.00000
M204 S1000
G1 F1200.000
G1 X42.316 Y38.348 E0.15239
G1 X45.944 Y35.547 E0.14371
G1 X47.793 Y34.237 E0.07105
G1 X51.564 Y31.781 E0.14110
G1 X57.365 Y28.447 E0.20978
G1 X63.331 Y25.426 E0.20968
G1 X71.423 Y21.740 E0.27878
G1 X73.587 Y20.858 E0.07328
G1 X75.874 Y20.050 E0.07604
G1 X78.441 Y19.332 E0.08359
G1 X81.088 Y18.809 E0.08459
G1 X82.930 Y18.532 E0.05842
G1 X86.756 Y18.057 E0.12087
G1 X97.841 Y16.893 E0.34949
G1 X147.880 Y17.712 E1.56915
G1 X156.634 Y19.139 E0.27807
G1 X164.870 Y20.767 E0.26324
G1 X171.632 Y22.370 E0.21790
G1 X178.757 Y24.340 E0.23177
G1 X182.505 Y25.500 E0.12304
G1 X186.340 Y26.801 E0.12697
G1 X190.201 Y28.255 E0.12937
G1 X194.054 Y29.880 E0.13110
G1 X197.186 Y31.364 E0.10868
G1 X199.785 Y32.710 E0.09175
G1 X203.211 Y34.708 E0.12436
G1 X205.234 Y36.017 E0.07556
G1 X207.025 Y37.279 E0.06867
G1 X210.326 Y39.895 E0.13207
G1 X211.949 Y41.330 E0.06792
G1 X214.910 Y44.225 E0.12985
G1 X216.369 Y45.795 E0.06720
G1 X219.010 Y48.911 E0.12806
G1 X220.951 Y51.464 E0.10056
G1 X222.571 Y53.775 E0.08849
G1 X224.136 Y56.221 E0.09103
G1 X225.646 Y58.789 E0.09342
G1 X227.372 Y62.073 E0.11630
G1 X228.880 Y65.344 E0.11294
G1 X230.157 Y68.498 E0.10669
G1 X237.706 Y88.949 E0.68353
G1 X238.259 Y90.640 E0.05577
G1 X240.047 Y96.687 E0.19772
G1 X240.378 Y98.790 E0.06675
G1 X240.757 Y105.001 E0.19509
G1 X240.367 Y111.302 E0.19795
G1 X240.039 Y113.341 E0.06475
G1 X237.704 Y121.058 E0.25280
G1 X229.543 Y143.069 E0.73604
G1 X227.385 Y147.900 E0.16592
G1 X225.634 Y151.234 E0.11808
G1 X223.659 Y154.552 E0.12105
G1 X221.448 Y157.852 E0.12456
G1 X219.010 Y161.089 E0.12704
G1 X216.349 Y164.227 E0.12903
G1 X213.448 Y167.251 E0.13136
G1 X210.358 Y170.077 E0.13132
G1 X207.027 Y172.719 E0.13330
G1 X205.250 Y173.972 E0.06815
G1 X203.211 Y175.292 E0.07617
G1 X199.801 Y177.280 E0.12376
G1 X195.322 Y179.534 E0.15724
G1 X190.177 Y181.755 E0.17570
G1 X186.330 Y183.202 E0.12886
G1 X182.496 Y184.503 E0.12695
G1 X175.127 Y186.699 E0.24108
G1 X166.541 Y188.860 E0.27762
G1 X158.279 Y190.562 E0.26448
G1 X148.224 Y192.241 E0.31963
G1 X97.826 Y193.107 E1.58042
G1 X86.750 Y191.943 E0.34918
G1 X81.144 Y191.200 E0.17732
G1 X78.443 Y190.668 E0.08631
G1 X75.889 Y189.955 E0.08314
G1 X73.565 Y189.133 E0.07730
G1 X67.362 Y186.453 E0.21184
G1 X61.335 Y183.600 E0.20909
G1 X55.427 Y180.490 E0.20933
G1 X51.536 Y178.202 E0.14154
G1 X47.765 Y175.743 E0.14115
G1 X44.099 Y173.069 E0.14227
G1 X40.568 Y170.186 E0.14294
G1 X37.205 Y167.137 E0.14233
G1 X34.004 Y163.931 E0.14203
G1 X31.003 Y160.613 E0.14027
G1 X28.215 Y157.208 E0.13799
G1 X25.645 Y153.724 E0.13573
G1 X24.455 Y151.969 E0.06650
G1 X22.379 Y148.629 E0.12331
G1 X20.398 Y144.995 E0.12977
G1 X18.041 Y139.875 E0.17673
G1 X16.166 Y134.927 E0.16590
G1 X15.167 Y131.846 E0.10156
G1 X14.260 Y128.697 E0.10275
G1 X11.797 Y118.703 E0.32273
G1 X10.677 Y112.955 E0.18360
G1 X10.235 Y109.596 E0.10623
G1 X10.054 Y107.278 E0.07290
G1 X9.992 Y104.999 E0.07148
G1 X10.056 Y102.693 E0.07233
G1 X10.234 Y100.412 E0.07176
G1 X10.676 Y97.048 E0.10638
G1 X11.797 Y91.298 E0.18368
G1 X13.587 Y83.858 E0.23992
G1 X15.165 Y78.160 E0.18536
G1 X16.750 Y73.428 E0.15648
G1 X18.770 Y68.431 E0.16901
G1 X20.386 Y65.028 E0.11810
G1 X21.300 Y63.286 E0.06170
G1 X23.442 Y59.613 E0.13331
G1 X25.641 Y56.283 E0.12511
G1 X26.907 Y54.519 E0.06809
G1 X29.753 Y50.875 E0.14497
G1 X32.461 Y47.735 E0.13001
G1 X34.011 Y46.062 E0.07153
G1 X37.176 Y42.891 E0.14045
G1 X38.597 Y41.569 E0.06086
; printing object mandoHelmet-anillo-papa.stl id:0 copy 0
G1 F8640.000
G1 X41.085 Y39.414 E-0.76000
G1 E-0.04000 F2100.00000
G1 Z0.600 F10800.000
G1 X232.074 Y118.485
G1 Z0.200
G1 E0.80000 F2100.00000
G1 F1200.000
G1 X231.471 Y118.490 E0.01892
G1 X230.538 Y118.358 E0.02953
G1 X229.140 Y124.575 E0.19978
G1 X228.187 Y128.518 E0.12719
G1 X227.750 Y130.175 E0.05372
G1 X227.242 Y131.962 E0.05825
G1 X226.505 Y134.352 E0.07842
G1 X225.511 Y137.280 E0.09695
G1 X224.957 Y138.793 E0.05053
G1 X224.361 Y140.326 E0.05156
G1 X223.722 Y141.879 E0.05268
G1 X223.034 Y143.448 E0.05370
G1 X222.297 Y145.027 E0.05463
G1 X221.508 Y146.608 E0.05541
G1 X220.666 Y148.186 E0.05608
G1 X219.773 Y149.759 E0.05671
G1 X218.828 Y151.322 E0.05727
G1 X217.830 Y152.871 E0.05778
G1 X216.780 Y154.404 E0.05824
G1 X215.679 Y155.915 E0.05864
G1 X214.525 Y157.401 E0.05900
G1 X213.319 Y158.857 E0.05928
G1 X212.062 Y160.281 E0.05955
G1 X210.752 Y161.666 E0.05978
G1 X209.390 Y163.010 E0.05998
G1 X207.977 Y164.307 E0.06015
G1 X206.512 Y165.554 E0.06032
G1 X204.996 Y166.746 E0.06048
G1 X203.429 Y167.879 E0.06063
G1 X201.811 Y168.947 E0.06080
G1 X200.150 Y169.953 E0.06086
G1 X198.452 Y170.899 E0.06095
G1 X196.720 Y171.789 E0.06104
G1 X194.762 Y172.714 E0.06790
G1 X193.181 Y173.411 E0.05419
G1 X191.384 Y174.150 E0.06092
G1 X189.574 Y174.845 E0.06080
G1 X187.757 Y175.500 E0.06056
G1 X185.938 Y176.116 E0.06023
G1 X184.119 Y176.699 E0.05986
G1 X180.518 Y177.770 E0.11780
G1 X176.987 Y178.739 E0.11482
G1 X171.901 Y180.050 E0.16469
G1 X167.019 Y181.222 E0.15741
G1 X163.818 Y181.932 E0.10281
G1 X161.692 Y182.373 E0.06808
G1 X159.011 Y182.897 E0.08565
G1 X155.753 Y183.477 E0.10374
G1 X152.413 Y184.011 E0.10606
G1 X148.957 Y184.501 E0.10945
G1 X145.373 Y184.950 E0.11325
G1 X139.994 Y185.543 E0.16968
G1 X134.987 Y186.037 E0.15775
G1 X128.131 Y186.673 E0.21589
G1 X125.660 Y186.925 E0.07789
G1 X124.318 Y187.091 E0.04238
G1 X121.084 Y187.543 E0.10240
G1 X119.938 Y187.648 E0.03609
G1 X119.269 Y187.689 E0.02100
G1 X117.701 Y187.741 E0.04919
G1 X115.686 Y187.745 E0.06320
G1 X114.448 Y187.724 E0.03879
G1 X111.412 Y187.623 E0.09524
G1 X107.799 Y187.447 E0.11343
G1 X105.817 Y187.330 E0.06225
G1 X101.583 Y187.037 E0.13309
G1 X98.344 Y186.780 E0.10188
G1 X93.435 Y186.323 E0.15456
G1 X90.837 Y186.041 E0.08194
G1 X88.193 Y185.718 E0.08352
G1 X85.474 Y185.338 E0.08609
G1 X82.813 Y184.902 E0.08453
G1 X80.482 Y184.451 E0.07443
G1 X78.219 Y183.917 E0.07292
G1 X76.019 Y183.305 E0.07158
G1 X73.880 Y182.625 E0.07039
G1 X72.243 Y182.050 E0.05440
G1 X70.139 Y181.254 E0.07053
G1 X68.051 Y180.401 E0.07072
G1 X65.754 Y179.393 E0.07863
G1 X63.806 Y178.482 E0.06744
G1 X61.886 Y177.536 E0.06711
G1 X59.991 Y176.554 E0.06691
G1 X58.124 Y175.532 E0.06675
G1 X56.284 Y174.469 E0.06664
G1 X54.471 Y173.363 E0.06656
G1 X52.688 Y172.214 E0.06653
G1 X50.934 Y171.018 E0.06657
G1 X49.209 Y169.775 E0.06666
G1 X47.514 Y168.484 E0.06680
G1 X45.853 Y167.148 E0.06685
G1 X44.226 Y165.771 E0.06681
G1 X42.638 Y164.357 E0.06668
G1 X41.089 Y162.910 E0.06647
G1 X39.583 Y161.432 E0.06616
G1 X38.120 Y159.928 E0.06578
G1 X36.705 Y158.402 E0.06526
G1 X35.338 Y156.856 E0.06469
G1 X34.023 Y155.295 E0.06401
G1 X32.760 Y153.722 E0.06323
G1 X31.554 Y152.142 E0.06235
G1 X30.405 Y150.556 E0.06140
G1 X29.317 Y148.969 E0.06032
G1 X28.292 Y147.385 E0.05917
G1 X27.331 Y145.807 E0.05793
G1 X26.437 Y144.240 E0.05657
G1 X25.608 Y142.684 E0.05527
G1 X24.840 Y141.142 E0.05405
G1 X24.127 Y139.613 E0.05289
G1 X23.467 Y138.098 E0.05180
G1 X22.855 Y136.599 E0.05078
G1 X22.287 Y135.115 E0.04981
G1 X21.759 Y133.646 E0.04893
G1 X20.810 Y130.766 E0.09509
G1 X19.974 Y127.960 E0.09179
G1 X19.225 Y125.239 E0.08849
G1 X17.921 Y120.240 E0.16201
G1 X17.144 Y117.103 E0.10130
G1 X16.515 Y114.278 E0.09076
G1 X16.108 Y112.113 E0.06906
G1 X15.940 Y111.054 E0.03362
G1 X15.688 Y109.071 E0.06267
G1 X15.587 Y107.988 E0.03411
G1 X15.480 Y105.992 E0.06267
G1 X15.467 Y105.000 E0.03111
G1 X15.480 Y104.009 E0.03109
G1 X15.521 Y103.010 E0.03133
G1 X15.680 Y101.002 E0.06315
G1 X15.941 Y98.943 E0.06507
G1 X16.299 Y96.818 E0.06758
G1 X16.687 Y94.913 E0.06094
G1 X17.011 Y93.462 E0.04662
G1 X17.921 Y89.760 E0.11952
G1 X19.590 Y83.412 E0.20581
G1 X20.379 Y80.649 E0.09010
G1 X20.810 Y79.232 E0.04643
G1 X21.759 Y76.354 E0.09501
G1 X22.287 Y74.885 E0.04895
G1 X22.855 Y73.401 E0.04981
G1 X23.467 Y71.902 E0.05078
G1 X24.127 Y70.387 E0.05180
G1 X24.840 Y68.858 E0.05289
G1 X25.608 Y67.316 E0.05405
G1 X26.437 Y65.760 E0.05527
G1 X27.331 Y64.193 E0.05657
G1 X28.292 Y62.615 E0.05793
G1 X29.317 Y61.031 E0.05916
G1 X29.799 Y60.328 E0.02671
G1 X30.406 Y59.444 E0.03362
G1 X31.554 Y57.859 E0.06138
G1 X32.760 Y56.278 E0.06235
G1 X34.023 Y54.705 E0.06324
G1 X35.339 Y53.143 E0.06405
G1 X37.163 Y51.104 E0.08578
G1 X38.120 Y50.072 E0.04411
G1 X39.583 Y48.568 E0.06578
G1 X41.089 Y47.090 E0.06616
G1 X42.638 Y45.643 E0.06647
G1 X44.226 Y44.229 E0.06668
G1 X45.853 Y42.852 E0.06681
G1 X47.514 Y41.516 E0.06685
G1 X49.209 Y40.225 E0.06680
G1 X50.934 Y38.982 E0.06666
G1 X52.688 Y37.786 E0.06657
G1 X54.471 Y36.637 E0.06653
G1 X56.284 Y35.531 E0.06656
G1 X58.124 Y34.468 E0.06663
G1 X59.991 Y33.446 E0.06675
G1 X61.886 Y32.464 E0.06691
G1 X63.806 Y31.518 E0.06711
G1 X65.754 Y30.607 E0.06744
G1 X68.051 Y29.599 E0.07863
G1 X70.139 Y28.746 E0.07072
G1 X72.243 Y27.950 E0.07053
G1 X73.880 Y27.375 E0.05440
G1 X76.019 Y26.695 E0.07040
G1 X78.219 Y26.083 E0.07158
G1 X80.482 Y25.549 E0.07292
G1 X82.813 Y25.098 E0.07443
G1 X85.474 Y24.662 E0.08453
G1 X88.193 Y24.282 E0.08609
G1 X90.837 Y23.959 E0.08352
G1 X93.435 Y23.677 E0.08194
G1 X98.344 Y23.220 E0.15457
G1 X101.583 Y22.963 E0.10188
G1 X105.818 Y22.670 E0.13312
M73 Q1 S69
G1 X109.668 Y22.456 E0.12091
G1 X113.013 Y22.317 E0.10494
G1 X114.451 Y22.276 E0.04513
G1 X116.500 Y22.251 E0.06425
G1 X118.529 Y22.280 E0.06363
G1 X119.275 Y22.311 E0.02339
G1 X120.532 Y22.400 E0.03954
G1 X121.775 Y22.541 E0.03921
G1 X124.887 Y22.983 E0.09855
M73 P1 R66
G1 X126.441 Y23.160 E0.04903
G1 X136.587 Y24.116 E0.31952
G1 X139.993 Y24.457 E0.10736
G1 X143.566 Y24.842 E0.11265
G1 X147.176 Y25.269 E0.11398
G1 X150.701 Y25.739 E0.11152
G1 X154.096 Y26.250 E0.10762
G1 X157.390 Y26.807 E0.10477
G1 X160.618 Y27.412 E0.10296
G1 X162.221 Y27.733 E0.05127
G1 X165.416 Y28.416 E0.10243
G1 X170.256 Y29.544 E0.15584
G1 X175.261 Y30.808 E0.16183
G1 X178.741 Y31.735 E0.11294
G1 X182.311 Y32.751 E0.11639
G1 X184.121 Y33.302 E0.05931
G1 X185.938 Y33.884 E0.05980
G1 X187.757 Y34.500 E0.06023
G1 X189.574 Y35.155 E0.06056
G1 X191.384 Y35.850 E0.06080
G1 X193.031 Y36.527 E0.05584
G1 X194.962 Y37.375 E0.06612
G1 X196.721 Y38.212 E0.06107
G1 X198.452 Y39.101 E0.06102
G1 X200.150 Y40.047 E0.06095
G1 X201.811 Y41.053 E0.06088
G1 X203.428 Y42.121 E0.06077
G1 X204.996 Y43.254 E0.06064
G1 X206.512 Y44.446 E0.06048
G1 X207.977 Y45.693 E0.06032
G1 X209.390 Y46.990 E0.06015
G1 X210.752 Y48.334 E0.05998
G1 X212.062 Y49.719 E0.05978
G1 X213.319 Y51.143 E0.05955
G1 X214.524 Y52.599 E0.05926
G1 X215.679 Y54.086 E0.05904
G1 X216.780 Y55.596 E0.05862
G1 X217.830 Y57.129 E0.05824
G1 X218.828 Y58.680 E0.05784
G1 X220.052 Y60.730 E0.07487
G1 X220.666 Y61.814 E0.03907
G1 X221.508 Y63.392 E0.05607
G1 X222.297 Y64.973 E0.05541
G1 X223.034 Y66.552 E0.05463
G1 X223.722 Y68.121 E0.05370
G1 X224.361 Y69.674 E0.05268
G1 X224.957 Y71.207 E0.05156
G1 X225.511 Y72.720 E0.05053
G1 X226.505 Y75.648 E0.09695
G1 X227.242 Y78.038 E0.07842
G1 X227.750 Y79.825 E0.05825
G1 X228.187 Y81.482 E0.05372
G1 X229.140 Y85.425 E0.12719
G1 X230.538 Y91.642 E0.19978
G1 X231.471 Y91.510 E0.02953
G1 X232.074 Y91.515 E0.01892
G1 X232.555 Y91.919 E0.01970
G1 X232.744 Y92.404 E0.01633
G1 X232.850 Y92.805 E0.01298
G1 X233.335 Y94.954 E0.06909
G1 X233.641 Y96.636 E0.05361
G1 X233.845 Y98.246 E0.05088
G1 X233.911 Y99.080 E0.02623
G1 X233.965 Y100.222 E0.03586
G1 X233.993 Y102.023 E0.05647
G1 X233.993 Y107.554 E0.17340
G1 X233.966 Y109.777 E0.06973
G1 X233.903 Y111.038 E0.03957
G1 X233.803 Y112.157 E0.03522
G1 X233.700 Y112.968 E0.02564
G1 X233.508 Y114.151 E0.03759
G1 X233.255 Y115.429 E0.04085
G1 X232.940 Y116.827 E0.04491
G1 X232.745 Y117.593 E0.02479
G1 X232.555 Y118.081 E0.01641
G1 X232.120 Y118.447 E0.01782
G1 X231.935 Y118.109 F10800.000
G1 F1200.000
G1 X231.496 Y118.113 E0.01379
G1 X230.259 Y117.938 E0.03915
G1 X230.248 Y117.956 E0.00068
G1 X230.035 Y118.833 E0.02828
G1 X228.772 Y124.489 E0.18172
G1 X227.821 Y128.426 E0.12697
G1 X227.387 Y130.075 E0.05349
G1 X226.881 Y131.855 E0.05801
G1 X226.146 Y134.237 E0.07817
G1 X225.156 Y137.153 E0.09655
G1 X224.604 Y138.659 E0.05031
G1 X224.011 Y140.186 E0.05133
G1 X223.375 Y141.732 E0.05242
G1 X222.691 Y143.292 E0.05343
G1 X221.958 Y144.862 E0.05433
G1 X221.172 Y146.435 E0.05510
G1 X220.336 Y148.004 E0.05577
G1 X219.448 Y149.568 E0.05639
G1 X218.508 Y151.122 E0.05695
G1 X217.516 Y152.663 E0.05745
G1 X216.473 Y154.186 E0.05789
G1 X215.377 Y155.688 E0.05828
G1 X214.231 Y157.165 E0.05863
G1 X213.033 Y158.612 E0.05890
G1 X211.783 Y160.026 E0.05916
G1 X210.482 Y161.402 E0.05937
G1 X209.130 Y162.737 E0.05956
G1 X207.727 Y164.025 E0.05972
G1 X206.274 Y165.262 E0.05987
G1 X204.769 Y166.445 E0.06001
G1 X203.214 Y167.569 E0.06015
G1 X201.609 Y168.629 E0.06031
G1 X199.961 Y169.627 E0.06042
G1 X198.274 Y170.566 E0.06054
G1 X196.554 Y171.450 E0.06065
G1 X194.606 Y172.371 E0.06755
G1 X193.033 Y173.064 E0.05388
G1 X191.245 Y173.800 E0.06063
G1 X189.443 Y174.492 E0.06054
G1 X187.633 Y175.144 E0.06032
G1 X185.820 Y175.758 E0.06002
G1 X184.008 Y176.338 E0.05964
G1 X180.415 Y177.407 E0.11755
G1 X176.890 Y178.374 E0.11461
G1 X171.809 Y179.684 E0.16450
G1 X166.934 Y180.855 E0.15721
G1 X163.739 Y181.563 E0.10263
G1 X161.617 Y182.003 E0.06793
G1 X158.941 Y182.526 E0.08548
G1 X155.691 Y183.106 E0.10354
G1 X152.357 Y183.638 E0.10585
G1 X148.907 Y184.127 E0.10925
G1 X145.329 Y184.575 E0.11307
G1 X139.955 Y185.168 E0.16952
G1 X134.951 Y185.662 E0.15764
G1 X128.094 Y186.297 E0.21591
G1 X125.617 Y186.550 E0.07807
G1 X124.269 Y186.718 E0.04260
G1 X121.040 Y187.169 E0.10221
G1 X119.909 Y187.272 E0.03563
G1 X119.251 Y187.312 E0.02066
G1 X117.695 Y187.364 E0.04884
G1 X115.688 Y187.368 E0.06290
G1 X114.458 Y187.347 E0.03859
G1 X111.428 Y187.246 E0.09506
G1 X107.819 Y187.070 E0.11328
G1 X105.841 Y186.953 E0.06213
G1 X101.611 Y186.661 E0.13297
G1 X98.376 Y186.404 E0.10174
G1 X93.473 Y185.948 E0.15439
G1 X90.880 Y185.666 E0.08177
G1 X88.242 Y185.344 E0.08334
G1 X85.530 Y184.965 E0.08585
G1 X82.879 Y184.531 E0.08422
G1 X80.562 Y184.082 E0.07402
G1 X78.313 Y183.552 E0.07245
G1 X76.127 Y182.944 E0.07113
G1 X73.999 Y182.267 E0.07000
G1 X72.372 Y181.696 E0.05408
G1 X70.277 Y180.903 E0.07024
G1 X68.198 Y180.054 E0.07042
G1 X65.910 Y179.049 E0.07834
G1 X63.969 Y178.142 E0.06719
G1 X62.056 Y177.200 E0.06686
G1 X60.169 Y176.221 E0.06665
G1 X58.309 Y175.203 E0.06648
G1 X56.476 Y174.145 E0.06636
G1 X54.672 Y173.044 E0.06627
G1 X52.896 Y171.899 E0.06623
G1 X51.150 Y170.709 E0.06626
G1 X49.433 Y169.472 E0.06634
G1 X47.747 Y168.187 E0.06649
G1 X46.093 Y166.857 E0.06654
