; generated by PrusaSlicer 2.2.0+linux-x64 on 2021-09-26 at 07:34:27 UTC

; 

; external perimeters extrusion width = 0.45mm
; perimeters extrusion width = 0.45mm
; infill extrusion width = 0.45mm
; solid infill extrusion width = 0.45mm
; top infill extrusion width = 0.40mm
; first layer extrusion width = 0.42mm

M73 P0 R60
M73 Q0 S62
M201 X1000 Y1000 Z200 E5000 ; sets maximum accelerations, mm/sec^2
M203 X200 Y200 Z12 E120 ; sets maximum feedrates, mm/sec
M204 P1250 R1250 T1250 ; sets acceleration (P, T) and retract acceleration (R), mm/sec^2
M205 X8.00 Y8.00 Z0.40 E4.50 ; sets the jerk limits, mm/sec
M205 S0 T0 ; sets the minimum extruding and travel feed rate, mm/sec
M107
M862.3 P "MK3" ; printer model check
M862.1 P0.4 ; nozzle diameter check
M115 U3.10.0 ; tell printer latest fw version
G90 ; use absolute coordinates
M83 ; extruder relative mode
M104 S215 ; set extruder temp
M140 S60 ; set bed temp
M190 S60 ; wait for bed temp
M109 S215 ; wait for extruder temp
G28 W ; home all without mesh bed level
G80 ; mesh bed leveling
G1 Y-3.0 F1000.0 ; go outside print area
G92 E0.0
G1 X60.0 E9.0 F1000.0 ; intro line
M73 Q0 S62
M73 P0 R60
G1 X100.0 E12.5 F1000.0 ; intro line
G92 E0.0
M221 S95

; Don't change E values below. Excessive value can damage the printer.

M907 E538 ; set extruder motor current
G21 ; set units to millimeters
G90 ; use absolute coordinates
M83 ; use relative distances for extrusion
M900 K0.05 ; Filament gcode LA 1.5
M900 K30 ; Filament gcode LA 1.0
;BEFORE_LAYER_CHANGE
G92 E0.0
;0.2


G1 E-0.80000 F2100.00000
G1 Z0.400 F10800.000
;AFTER_LAYER_CHANGE
;0.2
G1 X35.160 Y33.449
G1 Z0.200
G1 E0.80000 F2100.00000
M204 S1000
G1 F1200.000
G1 X39.198 Y29.519 E0.17666
G1 X45.798 Y23.593 E0.27811
G1 X49.256 Y20.758 E0.14021
G1 X53.198 Y17.861 E0.15339
G1 X57.628 Y15.026 E0.16491
G1 X60.889 Y13.217 E0.11692
G1 X64.398 Y11.523 E0.12217
G1 X68.293 Y9.916 E0.13210
G1 X71.950 Y8.624 E0.12163
G1 X73.953 Y7.998 E0.06580
G1 X78.083 Y6.875 E0.13418
G1 X82.247 Y5.960 E0.13369
G1 X84.378 Y5.572 E0.06793
G1 X88.688 Y4.956 E0.13650
G1 X93.057 Y4.561 E0.13755
G1 X97.423 Y4.406 E0.13696
G1 X101.707 Y4.479 E0.13436
G1 X105.997 Y4.750 E0.13479
G1 X110.249 Y5.185 E0.13401
G1 X116.558 Y6.076 E0.19977
G1 X122.809 Y7.161 E0.19892
G1 X125.056 Y7.636 E0.07200
G1 X127.274 Y8.215 E0.07188
G1 X129.567 Y8.976 E0.07576
G1 X132.090 Y10.036 E0.08579
G1 X136.948 Y12.459 E0.17025
G1 X146.324 Y17.457 E0.33311
G1 X185.380 Y44.805 E1.49496
G1 X192.244 Y51.273 E0.29568
G1 X198.452 Y57.611 E0.27818
G1 X204.095 Y63.923 E0.26547
G1 X208.763 Y69.620 E0.23092
G1 X211.094 Y72.692 E0.12090
G1 X213.369 Y75.905 E0.12343
G1 X216.612 Y81.015 E0.18979
G1 X218.181 Y83.831 E0.10106
G1 X219.483 Y86.391 E0.09005
G1 X221.003 Y89.825 E0.11774
G1 X221.844 Y92.011 E0.07346
G1 X222.521 Y94.022 E0.06651
G1 X223.599 Y97.926 E0.12698
G1 X224.399 Y101.832 E0.12501
G1 X224.948 Y105.758 E0.12432
G1 X225.260 Y109.670 E0.12304
G1 X225.348 Y113.485 E0.11965
G1 X225.232 Y117.234 E0.11758
G1 X225.036 Y119.750 E0.07913
G1 X224.449 Y124.327 E0.14470
G1 X223.820 Y127.652 E0.10610
G1 X218.498 Y149.436 E0.70311
G1 X216.217 Y156.791 E0.24146
G1 X215.357 Y158.637 E0.06383
G1 X212.308 Y163.801 E0.18803
G1 X208.674 Y168.526 E0.18692
G1 X207.274 Y170.023 E0.06427
G1 X202.174 Y174.209 E0.20687
G1 X184.364 Y187.033 E0.68812
G1 X181.640 Y188.861 E0.10286
G1 X178.715 Y190.631 E0.10719
G1 X175.559 Y192.323 E0.11228
G1 X172.220 Y193.892 E0.11567
G1 X168.706 Y195.319 E0.11891
G1 X165.037 Y196.578 E0.12163
G1 X161.232 Y197.643 E0.12390
G1 X157.327 Y198.480 E0.12521
G1 X153.311 Y199.070 E0.12726
G1 X149.263 Y199.374 E0.12730
G1 X145.183 Y199.379 E0.12792
G1 X141.115 Y199.112 E0.12782
G1 X137.056 Y198.609 E0.12823
G1 X133.075 Y197.912 E0.12674
G1 X127.297 Y196.589 E0.18584
G1 X121.762 Y195.031 E0.18031
G1 X116.549 Y193.357 E0.17167
G1 X110.141 Y191.064 E0.21338
G1 X104.944 Y189.006 E0.17526
G1 X98.886 Y186.395 E0.20682
G1 X91.996 Y183.197 E0.23818
G1 X51.922 Y157.037 E1.50051
G1 X43.793 Y150.196 E0.33313
G1 X39.719 Y146.574 E0.17092
G1 X37.809 Y144.639 E0.08525
G1 X36.251 Y142.796 E0.07567
G1 X34.871 Y140.931 E0.07274
G1 X32.486 Y137.256 E0.13737
G1 X29.194 Y131.819 E0.19929
G1 X26.098 Y126.252 E0.19972
G1 X24.172 Y122.414 E0.13463
G1 X22.406 Y118.483 E0.13512
G1 X20.839 Y114.481 E0.13475
G1 X19.467 Y110.319 E0.13741
G1 X18.318 Y106.088 E0.13748
G1 X17.395 Y101.845 E0.13614
G1 X17.015 Y99.721 E0.06764
G1 X16.421 Y95.524 E0.13290
G1 X16.035 Y91.299 E0.13303
G1 X15.924 Y89.227 E0.06507
G1 X15.864 Y85.384 E0.12049
G1 X16.019 Y81.255 E0.12956
G1 X16.385 Y77.483 E0.11883
G1 X16.940 Y73.841 E0.11550
G1 X18.015 Y68.819 E0.16103
G1 X19.287 Y64.247 E0.14880
G1 X20.647 Y60.133 E0.13586
G1 X23.239 Y53.113 E0.23465
G1 X25.386 Y47.896 E0.17689
G1 X27.317 Y43.953 E0.13765
G1 X28.396 Y42.054 E0.06849
G1 X29.590 Y40.182 E0.06962
G1 X30.850 Y38.427 E0.06772
G1 X32.207 Y36.722 E0.06834
G1 X35.120 Y33.494 E0.13633
; printing object mandoHelmet-anillo-mateo.stl id:0 copy 0
G1 F8640.000
G1 X37.477 Y31.196 E-0.76000
G1 E-0.04000 F2100.00000
G1 Z0.600 F10800.000
G1 X212.597 Y148.405
G1 Z0.200
G1 E0.80000 F2100.00000
G1 F1200.000
G1 X212.767 Y149.002 E0.01948
G1 X212.654 Y149.498 E0.01594
G1 X211.755 Y151.837 E0.07856
G1 X211.098 Y153.329 E0.05113
G1 X210.579 Y154.375 E0.03662
G1 X209.799 Y155.753 E0.04965
G1 X208.773 Y157.364 E0.05988
G1 X205.019 Y162.916 E0.21014
G1 X203.841 Y164.553 E0.06323
G1 X202.915 Y165.706 E0.04636
G1 X201.878 Y166.852 E0.04849
G1 X200.544 Y168.179 E0.05898
G1 X199.169 Y169.441 E0.05853
G1 X198.745 Y169.734 E0.01617
G1 X198.127 Y169.799 E0.01948
G1 X197.633 Y169.471 E0.01857
G1 X196.988 Y168.888 E0.02727
G1 X193.404 Y172.266 E0.15442
G1 X191.573 Y173.965 E0.07831
G1 X189.715 Y175.646 E0.07857
G1 X188.483 Y176.724 E0.05133
G1 X187.123 Y177.867 E0.05569
G1 X185.262 Y179.362 E0.07487
G1 X182.911 Y181.146 E0.09251
G1 X181.660 Y182.047 E0.04835
G1 X180.368 Y182.942 E0.04927
G1 X179.030 Y183.829 E0.05034
G1 X177.646 Y184.703 E0.05132
G1 X176.218 Y185.558 E0.05220
G1 X174.746 Y186.387 E0.05295
G1 X173.235 Y187.186 E0.05359
G1 X171.687 Y187.952 E0.05418
G1 X170.659 Y188.429 E0.03553
G1 X168.484 Y189.376 E0.07437
G1 X166.831 Y190.027 E0.05571
G1 X165.150 Y190.634 E0.05602
G1 X163.440 Y191.193 E0.05642
G1 X161.706 Y191.700 E0.05663
G1 X159.949 Y192.153 E0.05691
G1 X158.170 Y192.549 E0.05713
G1 X156.373 Y192.884 E0.05732
G1 X154.559 Y193.154 E0.05749
G1 X152.732 Y193.357 E0.05765
G1 X150.893 Y193.489 E0.05780
G1 X149.046 Y193.546 E0.05796
G1 X147.191 Y193.526 E0.05815
G1 X144.969 Y193.401 E0.06979
G1 X143.489 Y193.272 E0.04657
G1 X141.642 Y193.050 E0.05831
G1 X139.803 Y192.771 E0.05834
G1 X137.971 Y192.439 E0.05836
G1 X136.046 Y192.037 E0.06167
G1 X134.349 Y191.644 E0.05462
G1 X132.561 Y191.189 E0.05786
G1 X130.791 Y190.703 E0.05754
G1 X129.042 Y190.191 E0.05713
G1 X127.315 Y189.658 E0.05667
G1 X123.946 Y188.552 E0.11120
G1 X119.123 Y186.862 E0.16022
G1 X114.566 Y185.184 E0.15226
G1 X111.626 Y184.047 E0.09883
G1 X108.734 Y182.877 E0.09781
G1 X107.293 Y182.274 E0.04898
G1 X104.416 Y181.025 E0.09836
G1 X101.511 Y179.703 E0.10007
G1 X99.330 Y178.667 E0.07571
G1 X97.042 Y177.546 E0.07987
G1 X93.967 Y175.984 E0.10815
G1 X90.896 Y174.375 E0.10868
G1 X87.927 Y172.786 E0.10559
G1 X77.977 Y167.349 E0.35551
G1 X76.654 Y166.658 E0.04681
G1 X73.953 Y165.341 E0.09423
G1 X72.897 Y164.789 E0.03737
G1 X71.850 Y164.184 E0.03789
G1 X70.579 Y163.384 E0.04709
G1 X68.980 Y162.308 E0.06044
G1 X66.901 Y160.830 E0.07999
G1 X64.328 Y158.929 E0.10029
G1 X61.396 Y156.699 E0.11549
G1 X58.202 Y154.201 E0.12715
G1 X55.794 Y152.277 E0.09664
G1 X52.158 Y149.291 E0.14752
G1 X50.254 Y147.679 E0.07821
G1 X48.336 Y146.010 E0.07973
G1 X46.389 Y144.255 E0.08218
G1 X44.493 Y142.463 E0.08181
G1 X42.893 Y140.860 E0.07102
G1 X41.386 Y139.225 E0.06969
G1 X39.973 Y137.564 E0.06839
G1 X38.919 Y136.235 E0.05319
G1 X37.385 Y134.176 E0.08050
G1 X36.185 Y132.456 E0.06576
G1 X35.039 Y130.721 E0.06520
G1 X33.941 Y128.972 E0.06476
G1 X32.947 Y127.311 E0.06066
G1 X31.872 Y125.432 E0.06787
G1 X30.899 Y123.641 E0.06392
G1 X29.968 Y121.832 E0.06379
G1 X29.080 Y120.006 E0.06367
G1 X28.238 Y118.161 E0.06359
G1 X27.442 Y116.296 E0.06357
G1 X26.693 Y114.411 E0.06360
G1 X25.993 Y112.504 E0.06369
G1 X25.343 Y110.575 E0.06383
G1 X24.743 Y108.628 E0.06387
G1 X24.193 Y106.668 E0.06383
G1 X23.693 Y104.699 E0.06371
G1 X23.242 Y102.724 E0.06351
G1 X22.841 Y100.748 E0.06321
G1 X22.488 Y98.775 E0.06285
G1 X22.185 Y96.810 E0.06235
G1 X21.931 Y94.855 E0.06181
G1 X21.725 Y92.916 E0.06115
G1 X21.568 Y90.995 E0.06041
G1 X21.460 Y89.098 E0.05957
G1 X21.400 Y87.228 E0.05866
G1 X21.388 Y85.390 E0.05763
G1 X21.424 Y83.588 E0.05654
G1 X21.508 Y81.824 E0.05536
G1 X21.640 Y80.105 E0.05405
G1 X21.817 Y78.430 E0.05281
G1 X22.034 Y76.797 E0.05164
G1 X22.289 Y75.206 E0.05054
G1 X22.577 Y73.653 E0.04950
G1 X22.895 Y72.139 E0.04852
G1 X23.240 Y70.661 E0.04759
G1 X23.608 Y69.218 E0.04668
G1 X23.996 Y67.807 E0.04588
G1 X24.399 Y66.426 E0.04511
G1 X25.240 Y63.760 E0.08764
G1 X26.534 Y59.973 E0.12548
G1 X28.135 Y55.476 E0.14966
G1 X29.008 Y53.134 E0.07838
G1 X29.906 Y50.890 E0.07578
G1 X30.617 Y49.252 E0.05598
G1 X31.061 Y48.297 E0.03302
G1 X31.990 Y46.456 E0.06467
G1 X32.940 Y44.781 E0.06036
G1 X33.443 Y43.969 E0.02995
G1 X33.963 Y43.176 E0.02972
G1 X34.504 Y42.399 E0.02972
G1 X35.071 Y41.630 E0.02995
G1 X36.272 Y40.125 E0.06036
G1 X37.635 Y38.577 E0.06467
G1 X38.356 Y37.809 E0.03302
G1 X39.612 Y36.540 E0.05598
G1 X41.361 Y34.871 E0.07578
G1 X43.209 Y33.189 E0.07838
G1 X46.787 Y30.029 E0.14966
G1 X49.820 Y27.418 E0.12548
G1 X51.981 Y25.645 E0.08764
G1 X54.278 Y23.872 E0.09098
G1 X55.480 Y22.993 E0.04670
G1 X56.724 Y22.123 E0.04759
G1 X58.011 Y21.264 E0.04852
G1 X59.344 Y20.418 E0.04950
G1 X60.727 Y19.589 E0.05054
G1 X62.161 Y18.780 E0.05164
G1 X63.650 Y17.992 E0.05281
G1 X65.196 Y17.230 E0.05405
G1 X66.802 Y16.495 E0.05535
G1 X68.462 Y15.790 E0.05655
G1 X70.172 Y15.117 E0.05763
G1 X71.930 Y14.477 E0.05865
G1 X73.731 Y13.872 E0.05958
G1 X75.571 Y13.303 E0.06040
G1 X77.448 Y12.771 E0.06116
G1 X79.357 Y12.280 E0.06180
G1 X81.294 Y11.830 E0.06235
G1 X83.257 Y11.422 E0.06285
G1 X85.240 Y11.059 E0.06322
G1 X87.240 Y10.742 E0.06351
G1 X89.254 Y10.474 E0.06371
G1 X91.278 Y10.254 E0.06383
G1 X93.308 Y10.086 E0.06387
G1 X95.341 Y9.971 E0.06383
G1 X97.371 Y9.911 E0.06369
G1 X98.980 Y9.906 E0.05044
G1 X101.426 Y9.949 E0.07668
G1 X103.453 Y10.044 E0.06363
G1 X105.478 Y10.188 E0.06367
G1 X107.504 Y10.379 E0.06379
G1 X109.528 Y10.616 E0.06391
G1 X111.554 Y10.895 E0.06411
G1 X113.583 Y11.217 E0.06442
G1 X115.616 Y11.585 E0.06476
G1 X117.654 Y12.004 E0.06523
G1 X120.111 Y12.581 E0.07913
G1 X121.745 Y13.011 E0.05299
G1 X123.803 Y13.618 E0.06728
G1 X125.872 Y14.311 E0.06841
G1 X127.949 Y15.101 E0.06969
G1 X130.033 Y15.989 E0.07102
G1 X132.402 Y17.082 E0.08181
G1 X134.756 Y18.235 E0.08218
G1 X137.019 Y19.395 E0.07973
G1 X139.223 Y20.560 E0.07817
G1 X141.337 Y21.708 E0.07541
G1 X143.351 Y22.825 E0.07222
G1 X147.822 Y25.374 E0.16136
G1 X149.540 Y26.378 E0.06238
G1 X152.699 Y28.268 E0.11542
G1 X154.123 Y29.140 E0.05236
G1 X156.580 Y30.685 E0.09100
G1 X158.420 Y31.900 E0.06914
G1 X159.811 Y32.875 E0.05326
G1 X161.326 Y34.038 E0.05987
G1 X162.234 Y34.815 E0.03746
G1 X164.462 Y36.832 E0.09423
G1 X165.596 Y37.802 E0.04680
G1 X173.110 Y43.987 E0.30516
M73 Q1 S61
G1 X176.926 Y47.177 E0.15593
G1 X179.563 Y49.429 E0.10872
M73 P1 R59
G1 X182.770 Y52.250 E0.13392
G1 X185.821 Y55.045 E0.12974
G1 X187.683 Y56.819 E0.08064
G1 X189.255 Y58.352 E0.06883
G1 X191.100 Y60.205 E0.08199
G1 X192.542 Y61.688 E0.06487
G1 X195.768 Y65.121 E0.14770
G1 X197.930 Y67.502 E0.10084
G1 X200.130 Y69.979 E0.10387
G1 X202.386 Y72.573 E0.10780
G1 X203.529 Y73.919 E0.05535
G1 X205.805 Y76.693 E0.11249
G1 X206.932 Y78.127 E0.05719
G1 X208.041 Y79.588 E0.05754
G1 X209.129 Y81.079 E0.05786
G1 X210.190 Y82.598 E0.05809
G1 X211.216 Y84.145 E0.05821
G1 X212.205 Y85.721 E0.05835
G1 X213.149 Y87.325 E0.05834
G1 X214.043 Y88.955 E0.05831
G1 X214.881 Y90.614 E0.05825
G1 X215.657 Y92.299 E0.05817
G1 X216.366 Y94.011 E0.05810
G1 X217.001 Y95.747 E0.05796
G1 X217.563 Y97.503 E0.05780
G1 X218.055 Y99.274 E0.05765
G1 X218.479 Y101.058 E0.05749
G1 X218.837 Y102.851 E0.05732
G1 X219.132 Y104.649 E0.05713
G1 X219.366 Y106.449 E0.05691
G1 X219.540 Y108.247 E0.05665
G1 X219.658 Y110.042 E0.05638
G1 X219.721 Y111.827 E0.05601
G1 X219.731 Y113.603 E0.05569
G1 X219.691 Y115.363 E0.05520
G1 X219.603 Y117.107 E0.05473
G1 X219.468 Y118.830 E0.05419
G1 X219.289 Y120.530 E0.05359
G1 X219.067 Y122.204 E0.05295
G1 X218.806 Y123.848 E0.05220
G1 X218.510 Y125.458 E0.05132
G1 X218.185 Y127.030 E0.05034
G1 X217.835 Y128.562 E0.04927
G1 X217.464 Y130.059 E0.04835
G1 X216.683 Y132.905 E0.09252
G1 X215.862 Y135.584 E0.08787
G1 X215.433 Y136.877 E0.04270
G1 X214.855 Y138.525 E0.05475
G1 X213.533 Y142.057 E0.11827
G1 X211.327 Y147.687 E0.18958
G1 X212.109 Y148.069 E0.02727
G1 X212.547 Y148.371 E0.01669
G1 X212.271 Y148.638 F10800.000
G1 F1200.000
G1 X212.378 Y149.013 E0.01221
G1 X212.291 Y149.394 E0.01225
G1 X211.407 Y151.692 E0.07721
G1 X210.757 Y153.169 E0.05060
G1 X210.246 Y154.198 E0.03602
G1 X209.476 Y155.559 E0.04902
G1 X208.458 Y157.157 E0.05940
G1 X204.709 Y162.700 E0.20981
G1 X203.540 Y164.324 E0.06275
G1 X202.628 Y165.461 E0.04570
G1 X201.605 Y166.592 E0.04783
G1 X200.283 Y167.906 E0.05843
G1 X198.933 Y169.146 E0.05747
G1 X198.610 Y169.369 E0.01233
G1 X198.222 Y169.410 E0.01221
G1 X197.865 Y169.173 E0.01344
G1 X196.983 Y168.383 E0.03712
G1 X196.349 Y168.960 E0.02691
G1 X193.147 Y171.991 E0.13824
G1 X191.319 Y173.687 E0.07818
G1 X189.464 Y175.364 E0.07840
G1 X188.237 Y176.437 E0.05111
G1 X186.884 Y177.575 E0.05545
G1 X185.029 Y179.065 E0.07457
G1 X182.687 Y180.842 E0.09220
G1 X181.443 Y181.739 E0.04810
G1 X180.157 Y182.630 E0.04904
G1 X178.825 Y183.513 E0.05009
G1 X177.449 Y184.382 E0.05104
G1 X176.028 Y185.232 E0.05190
G1 X174.566 Y186.056 E0.05264
G1 X173.063 Y186.850 E0.05328
G1 X171.524 Y187.612 E0.05386
G1 X170.504 Y188.085 E0.03524
G1 X168.339 Y189.027 E0.07403
G1 X166.698 Y189.675 E0.05533
G1 X165.027 Y190.277 E0.05568
G1 X163.329 Y190.832 E0.05603
G1 X161.606 Y191.336 E0.05627
G1 X159.861 Y191.787 E0.05652
G1 X158.095 Y192.179 E0.05673
G1 X156.311 Y192.512 E0.05690
G1 X154.511 Y192.780 E0.05706
G1 X152.698 Y192.982 E0.05720
G1 X150.874 Y193.112 E0.05733
G1 X149.042 Y193.169 E0.05747
G1 X147.204 Y193.149 E0.05764
G1 X144.995 Y193.025 E0.06935
G1 X143.528 Y192.897 E0.04620
G1 X141.693 Y192.676 E0.05793
G1 X139.865 Y192.398 E0.05799
G1 X138.043 Y192.069 E0.05803
G1 X136.127 Y191.669 E0.06138
G1 X134.438 Y191.277 E0.05436
G1 X132.657 Y190.824 E0.05762
G1 X130.894 Y190.340 E0.05733
G1 X129.151 Y189.830 E0.05694
G1 X127.430 Y189.299 E0.05647
G1 X124.067 Y188.195 E0.11098
G1 X119.251 Y186.507 E0.16001
G1 X114.699 Y184.831 E0.15207
G1 X111.765 Y183.696 E0.09865
G1 X108.877 Y182.529 E0.09765
G1 X107.441 Y181.927 E0.04883
G1 X104.569 Y180.681 E0.09817
G1 X101.670 Y179.361 E0.09986
G1 X99.494 Y178.327 E0.07555
G1 X97.210 Y177.209 E0.07971
G1 X94.140 Y175.649 E0.10799
G1 X91.073 Y174.042 E0.10856
G1 X88.106 Y172.455 E0.10549
G1 X78.155 Y167.017 E0.35557
G1 X76.824 Y166.321 E0.04708
G1 X74.123 Y165.004 E0.09423
G1 X73.078 Y164.458 E0.03695
G1 X72.045 Y163.861 E0.03741
G1 X70.785 Y163.068 E0.04669
G1 X69.195 Y161.998 E0.06010
G1 X67.122 Y160.524 E0.07974
G1 X64.554 Y158.628 E0.10010
G1 X61.627 Y156.401 E0.11532
G1 X58.436 Y153.905 E0.12701
G1 X56.031 Y151.984 E0.09650
G1 X52.399 Y149.002 E0.14735
G1 X50.500 Y147.393 E0.07805
G1 X48.586 Y145.728 E0.07955
G1 X46.645 Y143.978 E0.08194
G1 X44.756 Y142.193 E0.08150
G1 X43.165 Y140.599 E0.07062
G1 X41.669 Y138.975 E0.06922
G1 X40.265 Y137.324 E0.06795
G1 X39.218 Y136.005 E0.05281
G1 X37.691 Y133.956 E0.08013
G1 X36.497 Y132.244 E0.06543
G1 X35.356 Y130.517 E0.06491
G1 X34.262 Y128.775 E0.06450
G1 X33.273 Y127.121 E0.06042
G1 X32.202 Y125.249 E0.06763
G1 X31.233 Y123.465 E0.06366
G1 X30.305 Y121.664 E0.06352
G1 X29.421 Y119.845 E0.06339
G1 X28.583 Y118.009 E0.06330
G1 X27.790 Y116.153 E0.06327
