; generated by PrusaSlicer 2.2.0+linux-x64 on 2021-09-26 at 07:36:19 UTC

; 

; external perimeters extrusion width = 0.45mm
; perimeters extrusion width = 0.45mm
; infill extrusion width = 0.45mm
; solid infill extrusion width = 0.45mm
; top infill extrusion width = 0.40mm
; first layer extrusion width = 0.42mm

M73 P0 R49
M73 Q0 S51
M201 X1000 Y1000 Z200 E5000 ; sets maximum accelerations, mm/sec^2
M203 X200 Y200 Z12 E120 ; sets maximum feedrates, mm/sec
M204 P1250 R1250 T1250 ; sets acceleration (P, T) and retract acceleration (R), mm/sec^2
M205 X8.00 Y8.00 Z0.40 E4.50 ; sets the jerk limits, mm/sec
M205 S0 T0 ; sets the minimum extruding and travel feed rate, mm/sec
M107
M862.3 P "MK3" ; printer model check
M862.1 P0.4 ; nozzle diameter check
M115 U3.10.0 ; tell printer latest fw version
G90 ; use absolute coordinates
M83 ; extruder relative mode
M104 S215 ; set extruder temp
M140 S60 ; set bed temp
M190 S60 ; wait for bed temp
M109 S215 ; wait for extruder temp
G28 W ; home all without mesh bed level
G80 ; mesh bed leveling
G1 Y-3.0 F1000.0 ; go outside print area
G92 E0.0
G1 X60.0 E9.0 F1000.0 ; intro line
M73 Q0 S51
M73 P0 R49
G1 X100.0 E12.5 F1000.0 ; intro line
G92 E0.0
M221 S95

; Don't change E values below. Excessive value can damage the printer.

M907 E538 ; set extruder motor current
G21 ; set units to millimeters
G90 ; use absolute coordinates
M83 ; use relative distances for extrusion
M900 K0.05 ; Filament gcode LA 1.5
M900 K30 ; Filament gcode LA 1.0
;BEFORE_LAYER_CHANGE
G92 E0.0
;0.2


G1 E-0.80000 F2100.00000
G1 Z0.400 F10800.000
;AFTER_LAYER_CHANGE
;0.2
G1 X46.692 Y43.525
G1 Z0.200
G1 E0.80000 F2100.00000
M204 S1000
G1 F1200.000
G1 X48.416 Y41.677 E0.07925
G1 X52.137 Y38.171 E0.16030
G1 X58.206 Y32.895 E0.25213
G1 X61.390 Y30.371 E0.12740
G1 X65.014 Y27.796 E0.13939
G1 X69.080 Y25.285 E0.14985
G1 X72.069 Y23.690 E0.10622
G1 X75.289 Y22.199 E0.11127
G1 X78.887 Y20.783 E0.12123
G1 X84.020 Y19.136 E0.16903
G1 X87.791 Y18.176 E0.12200
G1 X93.525 Y17.085 E0.18300
G1 X97.449 Y16.589 E0.12401
G1 X101.423 Y16.294 E0.12494
G1 X105.355 Y16.217 E0.12333
G1 X109.286 Y16.347 E0.12329
G1 X113.174 Y16.655 E0.12232
G1 X117.031 Y17.113 E0.12178
G1 X122.741 Y18.014 E0.18123
G1 X128.406 Y19.092 E0.18082
G1 X131.062 Y19.727 E0.08561
G1 X132.461 Y20.122 E0.04560
G1 X134.536 Y20.848 E0.06892
G1 X136.808 Y21.847 E0.07783
G1 X141.184 Y24.118 E0.15457
G1 X149.623 Y28.794 E0.30251
G1 X184.603 Y54.142 E1.35445
G1 X190.761 Y60.133 E0.26940
G1 X196.291 Y65.965 E0.25199
G1 X201.314 Y71.770 E0.24068
G1 X205.470 Y77.012 E0.20974
G1 X207.536 Y79.829 E0.10956
G1 X209.551 Y82.776 E0.11192
G1 X212.427 Y87.473 E0.17270
G1 X213.773 Y89.981 E0.08925
G1 X214.956 Y92.400 E0.08442
G1 X216.279 Y95.525 E0.10638
G1 X217.018 Y97.541 E0.06733
G1 X217.606 Y99.387 E0.06074
G1 X218.529 Y102.953 E0.11549
G1 X219.199 Y106.517 E0.11372
G1 X219.639 Y110.091 E0.11290
G1 X219.865 Y113.653 E0.11190
G1 X219.889 Y117.116 E0.10860
G1 X219.728 Y120.526 E0.10702
G1 X219.514 Y122.799 E0.07159
G1 X218.912 Y126.962 E0.13190
G1 X218.291 Y129.979 E0.09657
G1 X213.150 Y149.637 E0.63707
G1 X210.969 Y156.287 E0.21945
G1 X210.149 Y157.978 E0.05892
G1 X207.302 Y162.625 E0.17087
G1 X203.924 Y166.873 E0.17018
G1 X202.612 Y168.231 E0.05922
G1 X197.920 Y171.956 E0.18781
G1 X181.593 Y183.315 E0.62363
G1 X179.088 Y184.939 E0.09359
G1 X176.404 Y186.504 E0.09742
G1 X173.510 Y187.996 E0.10210
G1 X170.455 Y189.371 E0.10503
G1 X167.237 Y190.618 E0.10822
G1 X163.883 Y191.709 E0.11059
G1 X160.407 Y192.621 E0.11267
G1 X156.845 Y193.325 E0.11385
G1 X153.182 Y193.802 E0.11581
G1 X149.496 Y194.019 E0.11578
G1 X145.786 Y193.964 E0.11635
G1 X142.102 Y193.663 E0.11589
G1 X138.409 Y193.145 E0.11693
G1 X134.802 Y192.453 E0.11516
G1 X129.578 Y191.168 E0.16869
G1 X124.577 Y189.672 E0.16365
G1 X119.871 Y188.076 E0.15580
G1 X114.094 Y185.903 E0.19353
G1 X109.423 Y183.965 E0.15856
G1 X103.969 Y181.509 E0.18756
G1 X97.747 Y178.497 E0.21673
G1 X61.814 Y154.203 E1.36000
G1 X54.531 Y147.871 E0.30259
G1 X50.887 Y144.523 E0.15518
G1 X49.171 Y142.726 E0.07788
G1 X47.781 Y141.027 E0.06883
G1 X46.552 Y139.308 E0.06626
G1 X44.438 Y135.932 E0.12489
G1 X41.534 Y130.958 E0.18060
G1 X38.801 Y125.852 E0.18158
G1 X37.113 Y122.346 E0.12200
G1 X35.566 Y118.749 E0.12276
G1 X34.203 Y115.093 E0.12235
G1 X33.017 Y111.288 E0.12494
G1 X32.035 Y107.425 E0.12498
G1 X31.259 Y103.558 E0.12369
G1 X30.469 Y97.806 E0.18204
G1 X30.180 Y93.959 E0.12096
G1 X30.111 Y88.621 E0.16737
G1 X30.314 Y84.834 E0.11893
G1 X30.703 Y81.410 E0.10803
G1 X31.261 Y78.104 E0.10513
G1 X32.312 Y73.558 E0.14630
G1 X33.535 Y69.423 E0.13518
G1 X34.831 Y65.707 E0.12341
G1 X37.283 Y59.381 E0.21271
G1 X39.308 Y54.679 E0.16054
G1 X41.122 Y51.121 E0.12521
G1 X42.133 Y49.410 E0.06232
G1 X43.251 Y47.718 E0.06358
G1 X45.681 Y44.610 E0.12371
G1 X46.651 Y43.569 E0.04461
; printing object mandoHelmet-anillo-marcos.stl id:0 copy 0
G1 F8640.000
G1 X48.416 Y41.677 E-0.59747
G1 X48.928 Y41.194 E-0.16253
G1 E-0.04000 F2100.00000
G1 Z0.600 F10800.000
G1 X194.164 Y167.800
G1 Z0.200
G1 E0.80000 F2100.00000
G1 F1200.000
G1 X193.694 Y167.478 E0.01788
G1 X193.165 Y166.982 E0.02273
G1 X189.030 Y170.747 E0.17532
G1 X187.089 Y172.467 E0.08134
G1 X185.970 Y173.428 E0.04624
G1 X184.792 Y174.407 E0.04803
G1 X183.448 Y175.478 E0.05387
G1 X181.384 Y177.040 E0.08118
G1 X180.144 Y177.933 E0.04790
G1 X177.951 Y179.428 E0.08321
G1 X176.722 Y180.214 E0.04573
G1 X175.454 Y180.986 E0.04656
G1 X174.146 Y181.741 E0.04735
G1 X172.799 Y182.471 E0.04804
G1 X171.417 Y183.173 E0.04860
G1 X170.424 Y183.646 E0.03449
G1 X168.553 Y184.485 E0.06427
G1 X167.073 Y185.090 E0.05014
G1 X165.566 Y185.657 E0.05048
G1 X164.032 Y186.182 E0.05083
G1 X162.474 Y186.664 E0.05115
G1 X160.893 Y187.099 E0.05139
G1 X159.292 Y187.484 E0.05163
G1 X157.673 Y187.817 E0.05183
G1 X156.038 Y188.094 E0.05201
G1 X154.388 Y188.313 E0.05217
G1 X152.727 Y188.470 E0.05231
G1 X151.057 Y188.563 E0.05246
G1 X149.380 Y188.588 E0.05260
G1 X147.699 Y188.542 E0.05272
G1 X146.019 Y188.431 E0.05279
G1 X144.342 Y188.258 E0.05285
G1 X142.670 Y188.029 E0.05293
G1 X140.798 Y187.708 E0.05953
G1 X139.350 Y187.422 E0.04629
G1 X137.595 Y187.025 E0.05640
G1 X136.077 Y186.647 E0.04905
G1 X134.463 Y186.208 E0.05246
G1 X132.866 Y185.742 E0.05217
G1 X131.286 Y185.252 E0.05185
G1 X128.200 Y184.223 E0.10199
G1 X125.215 Y183.157 E0.09941
G1 X120.958 Y181.562 E0.14251
G1 X118.244 Y180.503 E0.09137
G1 X115.597 Y179.429 E0.08954
G1 X112.992 Y178.327 E0.08868
G1 X110.404 Y177.180 E0.08877
G1 X107.805 Y175.974 E0.08982
G1 X105.171 Y174.694 E0.09183
G1 X102.477 Y173.325 E0.09476
G1 X99.713 Y171.864 E0.09803
G1 X96.954 Y170.361 E0.09849
G1 X94.287 Y168.878 E0.09569
G1 X85.355 Y163.807 E0.32203
G1 X84.168 Y163.163 E0.04235
G1 X81.734 Y161.927 E0.08558
G1 X80.790 Y161.414 E0.03368
G1 X79.849 Y160.850 E0.03442
G1 X78.707 Y160.105 E0.04273
G1 X77.275 Y159.107 E0.05474
G1 X76.407 Y158.477 E0.03364
G1 X74.304 Y156.897 E0.08245
G1 X71.829 Y154.978 E0.09821
G1 X69.080 Y152.784 E0.11029
G1 X65.510 Y149.853 E0.14482
G1 X63.914 Y148.511 E0.06538
G1 X60.566 Y145.612 E0.13886
G1 X58.390 Y143.644 E0.09197
G1 X57.118 Y142.457 E0.05456
G1 X55.380 Y140.760 E0.07616
G1 X53.954 Y139.282 E0.06440
G1 X52.612 Y137.777 E0.06322
G1 X51.354 Y136.249 E0.06207
G1 X50.172 Y134.701 E0.06106
G1 X49.055 Y133.138 E0.06022
G1 X48.142 Y131.790 E0.05107
G1 X46.977 Y129.972 E0.06767
G1 X46.006 Y128.370 E0.05875
G1 X45.076 Y126.756 E0.05842
G1 X44.183 Y125.132 E0.05810
G1 X43.326 Y123.493 E0.05798
G1 X42.508 Y121.840 E0.05784
G1 X41.730 Y120.171 E0.05773
G1 X40.993 Y118.486 E0.05767
G1 X40.299 Y116.784 E0.05765
G1 X39.647 Y115.063 E0.05767
G1 X39.041 Y113.324 E0.05775
G1 X38.480 Y111.565 E0.05788
G1 X37.964 Y109.792 E0.05791
G1 X37.495 Y108.006 E0.05788
G1 X37.070 Y106.214 E0.05777
G1 X36.690 Y104.417 E0.05758
G1 X36.355 Y102.620 E0.05732
G1 X36.065 Y100.826 E0.05698
G1 X35.819 Y99.040 E0.05653
G1 X35.617 Y97.264 E0.05603
G1 X35.525 Y96.239 E0.03226
G1 X35.345 Y93.761 E0.07790
G1 X35.275 Y92.038 E0.05408
G1 X35.248 Y90.342 E0.05318
G1 X35.264 Y88.675 E0.05226
G1 X35.323 Y87.040 E0.05129
G1 X35.426 Y85.443 E0.05020
G1 X35.571 Y83.886 E0.04903
G1 X35.756 Y82.369 E0.04790
G1 X35.977 Y80.892 E0.04684
G1 X36.231 Y79.452 E0.04584
G1 X36.515 Y78.049 E0.04489
G1 X36.826 Y76.680 E0.04400
G1 X37.161 Y75.342 E0.04324
G1 X37.886 Y72.771 E0.08376
G1 X38.274 Y71.522 E0.04099
G1 X39.074 Y69.119 E0.07942
G1 X39.894 Y66.817 E0.07662
G1 X41.514 Y62.458 E0.14579
G1 X42.645 Y59.545 E0.09798
G1 X43.416 Y57.695 E0.06285
G1 X44.204 Y55.954 E0.05992
G1 X45.023 Y54.315 E0.05744
G1 X45.885 Y52.767 E0.05557
G1 X46.802 Y51.295 E0.05436
G1 X47.789 Y49.886 E0.05392
G1 X48.858 Y48.521 E0.05436
G1 X50.018 Y47.182 E0.05557
G1 X51.278 Y45.852 E0.05744
G1 X52.644 Y44.515 E0.05992
G1 X54.119 Y43.159 E0.06283
G1 X55.805 Y41.672 E0.07049
G1 X59.106 Y38.851 E0.13615
G1 X60.941 Y37.311 E0.07513
G1 X62.874 Y35.741 E0.07805
G1 X64.916 Y34.166 E0.08088
G1 X65.987 Y33.380 E0.04165
G1 X67.091 Y32.601 E0.04235
G1 X68.231 Y31.830 E0.04316
G1 X69.410 Y31.070 E0.04400
G1 X70.632 Y30.322 E0.04489
G1 X71.898 Y29.591 E0.04584
G1 X73.211 Y28.878 E0.04684
G1 X74.572 Y28.186 E0.04790
G1 X75.986 Y27.517 E0.04902
G1 X76.768 Y27.173 E0.02680
G1 X77.453 Y26.874 E0.02342
G1 X78.968 Y26.259 E0.05127
G1 X80.529 Y25.674 E0.05227
G1 X82.132 Y25.119 E0.05318
G1 X83.773 Y24.597 E0.05401
G1 X85.451 Y24.108 E0.05478
G1 X87.160 Y23.654 E0.05544
G1 X88.897 Y23.236 E0.05604
G1 X90.660 Y22.856 E0.05653
G1 X92.445 Y22.515 E0.05698
G1 X94.248 Y22.215 E0.05732
G1 X96.067 Y21.958 E0.05758
G1 X97.897 Y21.744 E0.05777
G1 X99.735 Y21.575 E0.05788
G1 X101.578 Y21.452 E0.05791
G1 X103.422 Y21.378 E0.05788
G1 X104.793 Y21.359 E0.04298
G1 X107.102 Y21.376 E0.07239
G1 X108.941 Y21.447 E0.05770
G1 X110.776 Y21.563 E0.05767
G1 X112.610 Y21.724 E0.05773
G1 X114.444 Y21.927 E0.05784
G1 X116.277 Y22.171 E0.05798
G1 X118.108 Y22.455 E0.05810
G1 X119.943 Y22.777 E0.05842
G1 X121.780 Y23.141 E0.05873
G1 X123.621 Y23.551 E0.05913
G1 X125.467 Y24.011 E0.05965
G1 X127.647 Y24.626 E0.07101
G1 X129.176 Y25.108 E0.05027
G1 X131.042 Y25.767 E0.06205
G1 X132.915 Y26.514 E0.06322
G1 X134.792 Y27.348 E0.06440
G1 X136.981 Y28.401 E0.07617
G1 X139.093 Y29.479 E0.07435
G1 X141.126 Y30.562 E0.07220
G1 X144.995 Y32.717 E0.13888
G1 X149.168 Y35.149 E0.15142
G1 X153.778 Y37.943 E0.16903
G1 X157.593 Y40.364 E0.14168
G1 X159.519 Y41.647 E0.07256
G1 X160.949 Y42.652 E0.05480
G1 X162.041 Y43.472 E0.04282
G1 X163.253 Y44.475 E0.04932
G1 X165.332 Y46.411 E0.08908
G1 X166.197 Y47.192 E0.03653
G1 X175.662 Y55.277 E0.39030
G1 X179.182 Y58.369 E0.14689
G1 X181.502 Y60.467 E0.09807
G1 X184.309 Y63.106 E0.12080
G1 X186.833 Y65.582 E0.11088
G1 X189.798 Y68.637 E0.13347
G1 X192.681 Y71.760 E0.13325
G1 X194.597 Y73.912 E0.09036
G1 X196.534 Y76.142 E0.09261
G1 X198.517 Y78.471 E0.09590
G1 X200.540 Y80.911 E0.09938
G1 X202.562 Y83.459 E0.10199
G1 X203.563 Y84.776 E0.05185
G1 X204.547 Y86.117 E0.05217
G1 X205.512 Y87.484 E0.05246
G1 X206.451 Y88.878 E0.05268
G1 X207.359 Y90.295 E0.05279
G1 X208.233 Y91.739 E0.05292
G1 X209.065 Y93.207 E0.05292
G1 X209.852 Y94.700 E0.05290
G1 X210.588 Y96.216 E0.05285
G1 X211.268 Y97.757 E0.05279
G1 X211.885 Y99.320 E0.05272
G1 X212.436 Y100.905 E0.05260
G1 X212.920 Y102.507 E0.05246
G1 X213.340 Y104.121 E0.05231
G1 X213.699 Y105.746 E0.05217
G1 X213.997 Y107.378 E0.05201
G1 X214.238 Y109.013 E0.05183
G1 X214.424 Y110.649 E0.05163
G1 X214.556 Y112.283 E0.05139
G1 X214.636 Y113.912 E0.05115
G1 X214.667 Y115.533 E0.05081
G1 X214.662 Y116.215 E0.02141
G1 X214.650 Y117.144 E0.02912
G1 X214.588 Y118.740 E0.05007
G1 X214.482 Y120.320 E0.04965
G1 X214.334 Y121.880 E0.04916
G1 X214.147 Y123.420 E0.04862
G1 X213.921 Y124.935 E0.04804
G1 X213.660 Y126.422 E0.04735
G1 X213.368 Y127.878 E0.04656
G1 X213.050 Y129.299 E0.04565
G1 X212.710 Y130.683 E0.04469
G1 X212.351 Y132.036 E0.04387
G1 X211.602 Y134.605 E0.08392
G1 X210.816 Y137.027 E0.07984
G1 X209.858 Y139.682 E0.08850
G1 X208.609 Y142.863 E0.10715
G1 X206.558 Y147.855 E0.16920
G1 X207.205 Y148.183 E0.02273
G1 X207.668 Y148.514 E0.01787
G1 X207.825 Y149.101 E0.01905
G1 X207.711 Y149.571 E0.01516
G1 X206.991 Y151.376 E0.06091
G1 X206.392 Y152.716 E0.04605
G1 X205.921 Y153.660 E0.03305
G1 X205.215 Y154.904 E0.04486
G1 X204.276 Y156.359 E0.05430
G1 X200.590 Y161.630 E0.20168
G1 X199.555 Y163.025 E0.05446
M73 Q2 S50
G1 X198.637 Y164.136 E0.04517
G1 X197.677 Y165.163 E0.04407
G1 X196.447 Y166.347 E0.05354
G1 X195.178 Y167.474 E0.05323
G1 X194.769 Y167.747 E0.01539
G1 X194.224 Y167.795 E0.01717
G1 X194.266 Y167.413 F10800.000
G1 F1200.000
G1 X193.931 Y167.183 E0.01274
M73 P2 R48
G1 X193.172 Y166.473 E0.03257
G1 X188.778 Y170.466 E0.18618
G1 X186.841 Y172.183 E0.08116
G1 X185.727 Y173.140 E0.04605
G1 X184.554 Y174.114 E0.04781
G1 X183.217 Y175.180 E0.05360
G1 X181.160 Y176.737 E0.08089
G1 X179.927 Y177.624 E0.04761
G1 X177.743 Y179.113 E0.08289
G1 X176.522 Y179.894 E0.04543
G1 X175.262 Y180.662 E0.04628
G1 X173.962 Y181.412 E0.04705
G1 X172.623 Y182.137 E0.04773
G1 X171.250 Y182.835 E0.04830
G1 X170.266 Y183.304 E0.03420
G1 X168.405 Y184.139 E0.06394
G1 X166.936 Y184.739 E0.04977
G1 X165.439 Y185.302 E0.05014
G1 X163.915 Y185.824 E0.05048
G1 X162.368 Y186.302 E0.05079
G1 X160.799 Y186.734 E0.05101
G1 X159.210 Y187.116 E0.05124
G1 X157.604 Y187.446 E0.05143
G1 X155.981 Y187.721 E0.05159
G1 X154.346 Y187.938 E0.05173
G1 X152.699 Y188.094 E0.05186
G1 X151.044 Y188.186 E0.05199
G1 X149.382 Y188.211 E0.05211
G1 X147.716 Y188.166 E0.05224
G1 X146.051 Y188.055 E0.05234
G1 X144.387 Y187.884 E0.05244
G1 X142.727 Y187.656 E0.05253
G1 X140.867 Y187.337 E0.05918
G1 X139.428 Y187.053 E0.04599
G1 X137.683 Y186.658 E0.05611
G1 X136.172 Y186.282 E0.04880
G1 X134.565 Y185.845 E0.05222
G1 X132.974 Y185.381 E0.05196
G1 X131.402 Y184.893 E0.05163
G1 X128.323 Y183.867 E0.10174
G1 X125.344 Y182.802 E0.09919
G1 X121.093 Y181.210 E0.14234
G1 X118.383 Y180.152 E0.09121
G1 X115.741 Y179.081 E0.08938
G1 X113.142 Y177.981 E0.08849
G1 X110.559 Y176.837 E0.08857
G1 X107.967 Y175.633 E0.08961
G1 X105.339 Y174.356 E0.09162
G1 X102.650 Y172.990 E0.09456
G1 X99.891 Y171.531 E0.09786
G1 X97.136 Y170.031 E0.09837
G1 X94.472 Y168.549 E0.09559
G1 X85.538 Y163.478 E0.32209
G1 X84.343 Y162.829 E0.04263
G1 X81.910 Y161.593 E0.08558
G1 X80.978 Y161.087 E0.03327
G1 X80.049 Y160.530 E0.03395
G1 X78.918 Y159.793 E0.04232
G1 X77.494 Y158.800 E0.05445
G1 X76.631 Y158.173 E0.03343
G1 X74.533 Y156.598 E0.08226
G1 X72.063 Y154.681 E0.09804
G1 X69.317 Y152.491 E0.11013
G1 X65.751 Y149.563 E0.14467
G1 X64.159 Y148.224 E0.06523
G1 X60.816 Y145.329 E0.13864
G1 X58.645 Y143.367 E0.09175
G1 X57.378 Y142.184 E0.05434
G1 X55.648 Y140.494 E0.07585
G1 X54.231 Y139.025 E0.06399
G1 X52.899 Y137.531 E0.06275
G1 X51.649 Y136.014 E0.06162
G1 X50.475 Y134.477 E0.06066
G1 X49.364 Y132.923 E0.05988
G1 X48.457 Y131.582 E0.05077
G1 X47.297 Y129.773 E0.06738
G1 X46.331 Y128.178 E0.05847
G1 X45.404 Y126.571 E0.05817
G1 X44.515 Y124.954 E0.05785
G1 X43.662 Y123.322 E0.05773
G1 X42.848 Y121.676 E0.05757
G1 X42.074 Y120.016 E0.05745
G1 X41.341 Y118.339 E0.05738
G1 X40.649 Y116.646 E0.05735
G1 X40.002 Y114.934 E0.05737
G1 X39.398 Y113.205 E0.05744
G1 X38.840 Y111.455 E0.05757
G1 X38.328 Y109.691 E0.05761
G1 X37.860 Y107.915 E0.05758
G1 X37.438 Y106.131 E0.05748
G1 X37.060 Y104.343 E0.05730
G1 X36.727 Y102.555 E0.05703
G1 X36.438 Y100.770 E0.05670
G1 X36.193 Y98.993 E0.05625
G1 X35.992 Y97.226 E0.05576
G1 X35.901 Y96.209 E0.03202
G1 X35.722 Y93.740 E0.07761
G1 X35.652 Y92.027 E0.05375
G1 X35.625 Y90.341 E0.05289
G1 X35.641 Y88.684 E0.05196
G1 X35.700 Y87.059 E0.05096
G1 X35.802 Y85.472 E0.04987
G1 X35.946 Y83.926 E0.04869
G1 X36.129 Y82.420 E0.04758
G1 X36.349 Y80.952 E0.04652
G1 X36.602 Y79.522 E0.04554
G1 X36.884 Y78.128 E0.04461
G1 X37.193 Y76.768 E0.04373
G1 X37.526 Y75.439 E0.04294
G1 X38.248 Y72.878 E0.08344
G1 X38.633 Y71.638 E0.04072
G1 X39.431 Y69.242 E0.07918
G1 X40.249 Y66.946 E0.07642
G1 X41.866 Y62.592 E0.14563
G1 X42.995 Y59.686 E0.09775
G1 X43.762 Y57.845 E0.06253
